SVG_Azure_All/IoT Hub Security.svg

<?xml version="1.0" encoding="UTF-8" standalone="no"?>
<!-- Generated by Microsoft Visio, SVG Export IoT Hub Security.svg Page-1 -->

<svg
   xmlns:dc="http://purl.org/dc/elements/1.1/"
   xmlns:cc="http://creativecommons.org/ns#"
   xmlns:rdf="http://www.w3.org/1999/02/22-rdf-syntax-ns#"
   xmlns:svg="http://www.w3.org/2000/svg"
   xmlns="http://www.w3.org/2000/svg"
   xmlns:sodipodi="http://sodipodi.sourceforge.net/DTD/sodipodi-0.dtd"
   xmlns:inkscape="http://www.inkscape.org/namespaces/inkscape"
   width="0.59048778in"
   height="0.78736174in"
   viewBox="0 0 42.515168 56.6903"
   xml:space="preserve"
   class="st4"
   version="1.1"
   id="svg29"
   sodipodi:docname="IoT Hub Security.svg"
   style="font-size:12px;overflow:visible;color-interpolation-filters:sRGB;fill:none;fill-rule:evenodd;stroke-linecap:square;stroke-miterlimit:3"
   inkscape:version="0.92.5 (2060ec1f9f, 2020-04-08)"><metadata
   id="metadata35"><rdf:RDF><cc:Work
       rdf:about=""><dc:format>image/svg+xml</dc:format><dc:type
         rdf:resource="http://purl.org/dc/dcmitype/StillImage" /></cc:Work></rdf:RDF></metadata><defs
   id="defs33" /><sodipodi:namedview
   pagecolor="#ffffff"
   bordercolor="#666666"
   borderopacity="1"
   objecttolerance="10"
   gridtolerance="10"
   guidetolerance="10"
   inkscape:pageopacity="0"
   inkscape:pageshadow="2"
   inkscape:window-width="640"
   inkscape:window-height="480"
   id="namedview31"
   showgrid="false"
   inkscape:zoom="1.5330186"
   inkscape:cx="28.346339"
   inkscape:cy="31.619591"
   inkscape:window-x="0"
   inkscape:window-y="0"
   inkscape:window-maximized="0"
   inkscape:current-layer="svg29" />
	<style
   type="text/css"
   id="style2">
	<![CDATA[
		.st1 {fill:#7fba00;stroke:none;stroke-linecap:butt;stroke-width:24.75}
		.st2 {fill:#96c414;stroke:none;stroke-linecap:butt;stroke-width:24.75}
		.st3 {fill:#ffffff;stroke:none;stroke-linecap:butt;stroke-width:24.75}
		.st4 {fill:none;fill-rule:evenodd;font-size:12px;overflow:visible;stroke-linecap:square;stroke-miterlimit:3}
	]]>
	</style>

	<g
   id="g27"
   transform="translate(-24.750155,-24.754)">
		<title
   id="title4">Page-1</title>
		<g
   id="group3848-1"
   transform="translate(24.75,-34.0157)">
			<title
   id="title6">IoT Hub Security</title>
			<g
   id="group3849-2">
				<title
   id="title8"> IOT</title>
				<g
   id="shape3850-3"
   transform="translate(0.305312)">
					<title
   id="title10">path6</title>
					<path
   d="M 35.91,65.72 C 23.23,64.34 21.1,58.98 21.1,58.98 c 0,0 -2.85,7.05 -21.1,7.05 v 28.93 c 0,3.5 1.98,6.78 4.72,9.63 6.23,6.49 16.38,10.87 16.38,10.87 0,0 21.11,-9.07 21.11,-20.5 V 66.03 h -0.2 a 58.0996,56.9782 0 0 1 -6.36,-0.34 l 0.26,0.02 z"
   class="st1"
   id="path12"
   inkscape:connector-curvature="0"
   style="fill:#7fba00;stroke:none;stroke-width:24.75;stroke-linecap:butt" />
				</g>
				<g
   id="shape3851-5"
   transform="translate(0,-11.0803)">
					<title
   id="title15">path8</title>
					<path
   d="m 21.1,69.85 c 0,0 -2.85,7.04 -21.1,7.04 v 28.94 c 0,3.5 1.98,6.77 4.72,9.63 L 35.91,76.58 C 23.23,75.21 21.1,69.85 21.1,69.85 Z"
   class="st2"
   id="path17"
   inkscape:connector-curvature="0"
   style="fill:#96c414;stroke:none;stroke-width:24.75;stroke-linecap:butt" />
				</g>
				<g
   id="shape3852-7"
   transform="translate(7.01371,-18.2964)">
					<title
   id="title20">path10</title>
					<path
   d="m 23.18,115.46 a 2.78755,2.73375 0 0 1 -1.94,-4.7 l -2.98,-5.1 a 3.36024,3.29538 0 0 1 -2.31,-0.06 l 0.02,0.01 -2.18,3.54 a 2.40275,2.35637 0 1 1 -1.68,-0.68 v 0 c 0.11,0 0.2,0.02 0.3,0.03 H 12.4 l 2.29,-3.72 a 3.50477,3.43712 0 0 1 -0.88,-1.45 v -0.03 l -9.05,0.74 A 2.41359,2.367 0 1 1 4.5,102.53 v 0.01 l 9.2,-0.75 c 0.12,-0.68 0.42,-1.27 0.85,-1.75 v 0 l -3.17,-4.4 a 2.9917,2.93395 0 1 1 1.27,-0.86 v 0 l 3.13,4.36 a 3.55174,3.48318 0 0 1 3.82,5.77 v 0 l 2.99,5.14 a 2.78936,2.73552 0 1 1 0.58,5.4 z"
   class="st3"
   id="path22"
   inkscape:connector-curvature="0"
   style="fill:#ffffff;stroke:none;stroke-width:24.75;stroke-linecap:butt" />
				</g>
			</g>
		</g>
	</g>
</svg>

<?xml version="1.0" encoding="UTF-8" standalone="no"?>
<!DOCTYPE svg PUBLIC "-//W3C//DTD SVG 1.1//EN" "http://www.w3.org/Graphics/SVG/1.1/DTD/svg11.dtd">
<!-- Generated by Microsoft Visio, SVG Export IoT Hub Security.svg Page-1 -->
<svg xmlns="http://www.w3.org/2000/svg" xmlns:xlink="http://www.w3.org/1999/xlink" xmlns:ev="http://www.w3.org/2001/xml-events"
		width="1.27805in" height="1.60359in" viewBox="0 0 92.0197 115.459" xml:space="preserve" color-interpolation-filters="sRGB"
		class="st4">
	<style type="text/css">
	<![CDATA[
		.st1 {fill:#7fba00;stroke:none;stroke-linecap:butt;stroke-width:24.75}
		.st2 {fill:#96c414;stroke:none;stroke-linecap:butt;stroke-width:24.75}
		.st3 {fill:#ffffff;stroke:none;stroke-linecap:butt;stroke-width:24.75}
		.st4 {fill:none;fill-rule:evenodd;font-size:12px;overflow:visible;stroke-linecap:square;stroke-miterlimit:3}
	]]>
	</style>

	<g>
		<title>Page-1</title>
		<g id="group3764-1" transform="translate(24.75,-34.0157)">
			<title>IoT Hub Security</title>
			<g id="group3765-2">
				<title> IOT</title>
				<g id="shape3766-3" transform="translate(0.305312,0)">
					<title>path6</title>
					<path d="M35.91 65.72 C23.23 64.34 21.1 58.98 21.1 58.98 C21.1 58.98 18.25 66.03 0 66.03 L0 94.96 C0 98.46 1.98
								 101.74 4.72 104.59 C10.95 111.08 21.1 115.46 21.1 115.46 C21.1 115.46 42.21 106.39 42.21 94.96 L42.21
								 66.03 L42.01 66.03 A58.0996 56.9782 0 0 1 35.65 65.69 L35.91 65.71 L35.91 65.72 Z" class="st1"/>
				</g>
				<g id="shape3767-5" transform="translate(-2.15827E-13,-11.0803)">
					<title>path8</title>
					<path d="M21.1 69.85 C21.1 69.85 18.25 76.89 0 76.89 L0 105.83 C0 109.33 1.98 112.6 4.72 115.46 L35.91 76.58
								 C23.23 75.21 21.1 69.85 21.1 69.85 Z" class="st2"/>
				</g>
				<g id="shape3768-7" transform="translate(7.01371,-18.2964)">
					<title>path10</title>
					<path d="M23.18 115.46 A2.78755 2.73375 0 0 1 21.24 110.76 L18.26 105.66 A3.36024 3.29538 0 0 1 15.95 105.6 L15.97
								 105.61 L13.79 109.15 A2.40275 2.35637 0 1 1 12.11 108.47 L12.11 108.47 C12.22 108.47 12.31 108.49
								 12.41 108.5 L12.4 108.5 L14.69 104.78 A3.50477 3.43712 0 0 1 13.81 103.33 L13.81 103.3 L4.76 104.04
								 A2.41359 2.367 0 1 1 4.5 102.53 L4.5 102.54 L13.7 101.79 C13.82 101.11 14.12 100.52 14.55 100.04
								 L14.55 100.04 L11.38 95.64 A2.9917 2.93395 0 1 1 12.65 94.78 L12.65 94.78 L15.78 99.14 A3.55174
								 3.48318 0 0 1 19.6 104.91 L19.6 104.91 L22.59 110.05 A2.78936 2.73552 0 1 1 23.17 115.45 L23.18
								 115.46 Z" class="st3"/>
				</g>
			</g>
		</g>
	</g>
</svg>
